X:1
T:[ID 1-109a]
T:[ID 1-109a]
T:Bezeichnung standardisiert: Tanz mit mir; Tantz In dieser Quelle auch als: Boure In dieser Quelle auch als: Boure Dantz mit mir In dieser Quelle auch als: Courant In dieser Quelle auch als: Allegro In dieser Quelle auch als: Boure In dieser Quelle auch als: Tantz mit mir \"Ahnlich in dieser Quelle: ID 5-18a \"Ahnlich in anderer Quelle: Neu-Hollaendisch - Hs. Arendsee (Anm. S. Wascher);
T:Urheber unbekannt Erstbeleg: vor 1767  (Datum in der schriftlichen Quelle) Datum in der hier transkribierten schriftlichen Quelle: vermutlich vor 1767
C:Urheber unbekannt
C:Erstbeleg: vor 1767  (Datum in der schriftlichen Quelle)
C:Datum in der hier transkribierten schriftlichen Quelle: vermutlich vor 1767
L:1/8
M:4/4
K:D
V:1 treble 
V:1
 d2 f2 f2 ed | e2 g2 g2 fe | f2 a2 a2 gf | edcB ABcA | d2 f2 f2 ed | e2 g2 g2 fe | fgae f2 ed | %7
 d6 :| !fermata!x a | g3 f efge | f2 d2 A2 a2 | g3 f efge | f6!D.C.! || %13

